X: 32783
T: Poodle Girl
R: reel
M: 4/4
K: Amajor
|:c2BA e2fe|A/B/cdc- cdB2|c2BA e2fe|A/B/cde cdB2:|
|:gaed B2Bc|d/c/BcA Bcde|gaed B2Bc|d/c/BcA B3B:|
|:EGBd-dcBA|A/B/cdc- cdB2|E3d-dcBA|A/B/cde cdB2:|

